packages/ffe-icons/icons/open/400/sm/dvr.svg

<svg xmlns="http://www.w3.org/2000/svg" height="20" viewBox="0 -960 960 960" width="20"><path d="M275.789-432Q291-432 301.5-442.289q10.5-10.29 10.5-25.5Q312-483 301.711-493.5q-10.29-10.5-25.5-10.5Q261-504 250.5-493.711q-10.5 10.29-10.5 25.5Q240-453 250.289-442.5q10.29 10.5 25.5 10.5Zm0-120Q291-552 301.5-562.289q10.5-10.29 10.5-25.5Q312-603 301.711-613.5q-10.29-10.5-25.5-10.5Q261-624 250.5-613.711q-10.5 10.29-10.5 25.5Q240-573 250.289-562.5q10.29 10.5 25.5 10.5ZM420-432h264q15.3 0 25.65-10.289 10.35-10.29 10.35-25.5Q720-483 709.65-493.5 699.3-504 684-504H420q-15.3 0-25.65 10.289-10.35 10.29-10.35 25.5Q384-453 394.35-442.5 404.7-432 420-432Zm0-120h264q15.3 0 25.65-10.289 10.35-10.29 10.35-25.5Q720-603 709.65-613.5 699.3-624 684-624H420q-15.3 0-25.65 10.289-10.35 10.29-10.35 25.5Q384-573 394.35-562.5 404.7-552 420-552ZM168-240q-29.7 0-50.85-21.162Q96-282.324 96-312.04v-432.243Q96-774 117.15-795T168-816h624q29.7 0 50.85 21.162Q864-773.676 864-743.96v432.243Q864-282 842.85-261T792-240H624v60q0 15.3-10.338 25.65Q603.323-144 588.04-144H372.283Q357-144 346.5-154.35 336-164.7 336-180v-60H168Zm0-72h624v-432H168v432Zm0 0v-432 432Z"/></svg>

<svg xmlns="http://www.w3.org/2000/svg" height="20" viewBox="0 -960 960 960" width="20"><path d="M275.79-432q15.21 0 25.71-10.29t10.5-25.5q0-15.21-10.29-25.71t-25.5-10.5q-15.21 0-25.71 10.29t-10.5 25.5q0 15.21 10.29 25.71t25.5 10.5Zm0-120q15.21 0 25.71-10.29t10.5-25.5q0-15.21-10.29-25.71t-25.5-10.5q-15.21 0-25.71 10.29t-10.5 25.5q0 15.21 10.29 25.71t25.5 10.5ZM420-432h264q15.3 0 25.65-10.29Q720-452.58 720-467.79t-10.35-25.71Q699.3-504 684-504H420q-15.3 0-25.65 10.29Q384-483.42 384-468.21t10.35 25.71Q404.7-432 420-432Zm0-120h264q15.3 0 25.65-10.29Q720-572.58 720-587.79t-10.35-25.71Q699.3-624 684-624H420q-15.3 0-25.65 10.29Q384-603.42 384-588.21t10.35 25.71Q404.7-552 420-552ZM168-240q-29.7 0-50.85-21.16Q96-282.32 96-312.04v-432.24Q96-774 117.15-795T168-816h624q29.7 0 50.85 21.16Q864-773.68 864-743.96v432.24Q864-282 842.85-261T792-240H624v60q0 15.3-10.34 25.65Q603.32-144 588.04-144H372.28q-15.28 0-25.78-10.35Q336-164.7 336-180v-60H168Zm0-72h624v-432H168v432Zm0 0v-432 432Z"/></svg>
